src/lib/packages/icons/src/assets/line/book-text.svg

<svg xmlns="http://www.w3.org/2000/svg" width="24" height="24" fill="none"><path fill="currentColor" d="M18.5 2.25H7C4.582 2.25 3.25 3.582 3.25 6v12c0 2.243 1.507 3.75 3.75 3.75h11.5c1.24 0 2.25-1.009 2.25-2.25v-15c0-1.241-1.01-2.25-2.25-2.25ZM7 3.75h11.5a.75.75 0 0 1 .75.75v9a.75.75 0 0 1-.75.75H7c-.881 0-1.643.239-2.25.658V6c0-1.577.673-2.25 2.25-2.25Zm11.5 16.5H7c-1.409 0-2.25-.841-2.25-2.25s.841-2.25 2.25-2.25h11.5c.264 0 .514-.054.75-.138V19.5a.75.75 0 0 1-.75.75ZM8.25 7A.75.75 0 0 1 9 6.25h6a.75.75 0 0 1 0 1.5H9A.75.75 0 0 1 8.25 7Zm0 3A.75.75 0 0 1 9 9.25h4a.75.75 0 0 1 0 1.5H9a.75.75 0 0 1-.75-.75Z"/></svg>

<svg width="24" height="24" viewBox="0 0 24 24" fill="none" xmlns="http://www.w3.org/2000/svg">
<path d="M18.5 2.25H7C4.582 2.25 3.25 3.582 3.25 6V18C3.25 20.243 4.757 21.75 7 21.75H18.5C19.74 21.75 20.75 20.741 20.75 19.5V13.5V11V4.5C20.75 3.259 19.74 2.25 18.5 2.25ZM7 3.75H18.5C18.913 3.75 19.25 4.086 19.25 4.5V11V13.5C19.25 13.914 18.913 14.25 18.5 14.25H7C6.119 14.25 5.357 14.489 4.75 14.908V6C4.75 4.423 5.423 3.75 7 3.75ZM18.5 20.25H7C5.591 20.25 4.75 19.409 4.75 18C4.75 16.591 5.591 15.75 7 15.75H18.5C18.764 15.75 19.014 15.6961 19.25 15.6121V19.5C19.25 19.914 18.913 20.25 18.5 20.25ZM8.25 7C8.25 6.586 8.586 6.25 9 6.25H15C15.414 6.25 15.75 6.586 15.75 7C15.75 7.414 15.414 7.75 15 7.75H9C8.586 7.75 8.25 7.414 8.25 7ZM8.25 10C8.25 9.586 8.586 9.25 9 9.25H13C13.414 9.25 13.75 9.586 13.75 10C13.75 10.414 13.414 10.75 13 10.75H9C8.586 10.75 8.25 10.414 8.25 10Z" fill="currentColor"/>
</svg>
